icons/clipboard-check.svg

<svg xmlns="http://www.w3.org/2000/svg" width="24" height="24" baseProfile="full" viewBox="0 0 24 24"><path d="M10 17l-4-4 1.41-1.41L10 14.17l6.59-6.59L18 9m-6-6c.55 0 1 .45 1 1s-.45 1-1 1-1-.45-1-1 .45-1 1-1zm7 0h-4.18C14.4 1.84 13.3 1 12 1c-1.3 0-2.4.84-2.82 2H5c-1.1 0-2 .9-2 2v14c0 1.1.9 2 2 2h14c1.1 0 2-.9 2-2V5c0-1.1-.9-2-2-2z"/></svg>

﻿<?xml version="1.0" encoding="utf-8"?>
<!DOCTYPE svg PUBLIC "-//W3C//DTD SVG 1.1//EN" "http://www.w3.org/Graphics/SVG/1.1/DTD/svg11.dtd">
<svg xmlns="http://www.w3.org/2000/svg" xmlns:xlink="http://www.w3.org/1999/xlink" version="1.1" baseProfile="full" width="24" height="24" viewBox="0 0 24.00 24.00" enable-background="new 0 0 24.00 24.00" xml:space="preserve">
	<path fill="#000000" fill-opacity="1" stroke-linejoin="round" d="M 10,17L 6,13L 7.41,11.59L 10,14.17L 16.59,7.58L 18,9M 12,3C 12.55,3 13,3.45 13,4C 13,4.55 12.55,5 12,5C 11.45,5 11,4.55 11,4C 11,3.45 11.45,3 12,3 Z M 19,3L 14.82,3C 14.4,1.84 13.3,1 12,1C 10.7,1 9.6,1.84 9.18,3L 5,3C 3.9,3 3,3.9 3,5L 3,19C 3,20.1 3.9,21 5,21L 19,21C 20.1,21 21,20.1 21,19L 21,5C 21,3.9 20.1,3 19,3 Z "/>
</svg>
